src/imagens/header/icon.email.svg

<svg width="26" height="29" viewBox="0 0 26 29" fill="none" xmlns="http://www.w3.org/2000/svg">
<g filter="url(#filter0_i_135_525)">
<path d="M2.70197 22.5566L11.2097 27.2119C12.4149 27.8714 13.8743 27.8662 15.0748 27.1982L23.4062 22.5621C24.6747 21.8562 25.4612 20.5184 25.4612 19.0668L25.4612 9.23367C25.4612 7.782 24.6747 6.44427 23.4062 5.73839L15.0748 1.10224C13.8743 0.4342 12.4149 0.429014 11.2097 1.0885L2.70197 5.74383C1.41955 6.44555 0.62207 7.79099 0.62207 9.25285L0.62207 19.0476C0.62207 20.5095 1.41955 21.8549 2.70197 22.5566Z" fill="url(#paint0_linear_135_525)"/>
</g>
<path d="M17.522 9.94873H9.08447C8.30787 9.94873 7.67822 10.5752 7.67822 11.3478V16.9441C7.67822 17.7167 8.30787 18.3431 9.08447 18.3431H17.522C18.2986 18.3431 18.9282 17.7167 18.9282 16.9441V11.3478C18.9282 10.5752 18.2986 9.94873 17.522 9.94873ZM15.2073 13.6821L18.1839 11.1442C18.2045 11.2098 18.2251 11.2754 18.2251 11.3478V16.9441C18.2251 16.9926 18.2066 17.0356 18.197 17.0814L15.2073 13.6821ZM17.522 10.6483C17.5687 10.6483 17.6099 10.666 17.6538 10.6749L13.3032 14.385L8.95264 10.6749C8.99658 10.666 9.03778 10.6483 9.08447 10.6483H17.522ZM8.40917 17.0807C8.39954 17.0349 8.38135 16.9926 8.38135 16.9441V11.3478C8.38135 11.2754 8.40229 11.2098 8.4229 11.1442L11.3985 13.6814L8.40917 17.0807ZM9.08447 17.6436C9.01341 17.6436 8.94886 17.6231 8.88397 17.6033L11.9327 14.137L13.0746 15.1105C13.1401 15.1672 13.2219 15.1952 13.3032 15.1952C13.3846 15.1952 13.4663 15.1672 13.5319 15.1105L14.6738 14.1371L17.7225 17.6033C17.6579 17.6231 17.5934 17.6436 17.522 17.6436H9.08447Z" fill="#0D0D0D"/>
<defs>
<filter id="filter0_i_135_525" x="0.62207" y="0.597656" width="25.2566" height="27.5229" filterUnits="userSpaceOnUse" color-interpolation-filters="sRGB">
<feFlood flood-opacity="0" result="BackgroundImageFix"/>
<feBlend mode="normal" in="SourceGraphic" in2="BackgroundImageFix" result="shape"/>
<feColorMatrix in="SourceAlpha" type="matrix" values="0 0 0 0 0 0 0 0 0 0 0 0 0 0 0 0 0 0 127 0" result="hardAlpha"/>
<feOffset dx="0.417465" dy="0.417465"/>
<feGaussianBlur stdDeviation="0.626197"/>
<feComposite in2="hardAlpha" operator="arithmetic" k2="-1" k3="1"/>
<feColorMatrix type="matrix" values="0 0 0 0 0 0 0 0 0 0 0 0 0 0 0 0 0 0 0.25 0"/>
<feBlend mode="normal" in2="shape" result="effect1_innerShadow_135_525"/>
</filter>
<linearGradient id="paint0_linear_135_525" x1="0.62207" y1="14.1502" x2="25.4612" y2="14.1502" gradientUnits="userSpaceOnUse">
<stop stop-color="#00E6AE"/>
<stop offset="1" stop-color="#00CC9B"/>
</linearGradient>
</defs>
</svg>

<svg xmlns="http://www.w3.org/2000/svg" width="26" height="29" fill="none"><g filter="url(#a)"><path fill="url(#b)" d="m2.702 22.557 8.508 4.655a4 4 0 0 0 3.865-.014l8.331-4.636a4 4 0 0 0 2.055-3.495V9.234a4 4 0 0 0-2.055-3.496l-8.331-4.636a4 4 0 0 0-3.865-.014L2.702 5.744a4 4 0 0 0-2.08 3.509v9.795a4 4 0 0 0 2.08 3.509Z"/></g><path fill="#0D0D0D" d="M17.522 9.949H9.084c-.776 0-1.406.626-1.406 1.399v5.596c0 .773.63 1.4 1.406 1.4h8.438c.777 0 1.406-.627 1.406-1.4v-5.596c0-.773-.63-1.4-1.406-1.4Zm-2.315 3.733 2.977-2.538c.02.066.041.131.041.204v5.596c0 .049-.018.092-.028.137l-2.99-3.399Zm2.315-3.034c.047 0 .088.018.132.027l-4.35 3.71-4.351-3.71c.044-.009.085-.027.131-.027h8.438Zm-9.113 6.433c-.01-.046-.028-.088-.028-.137v-5.596c0-.073.021-.138.042-.204l2.976 2.537-2.99 3.4Zm.675.563c-.07 0-.135-.02-.2-.04l3.049-3.467 1.142.973a.349.349 0 0 0 .457 0l1.142-.973 3.049 3.466c-.065.02-.13.04-.201.04H9.084Z"/><defs><linearGradient id="b" x1=".622" x2="25.461" y1="14.15" y2="14.15" gradientUnits="userSpaceOnUse"><stop stop-color="#00E6AE"/><stop offset="1" stop-color="#00CC9B"/></linearGradient><filter id="a" width="25.257" height="27.523" x=".622" y=".598" color-interpolation-filters="sRGB" filterUnits="userSpaceOnUse"><feFlood flood-opacity="0" result="BackgroundImageFix"/><feBlend in="SourceGraphic" in2="BackgroundImageFix" result="shape"/><feColorMatrix in="SourceAlpha" result="hardAlpha" values="0 0 0 0 0 0 0 0 0 0 0 0 0 0 0 0 0 0 127 0"/><feOffset dx=".417" dy=".417"/><feGaussianBlur stdDeviation=".626"/><feComposite in2="hardAlpha" k2="-1" k3="1" operator="arithmetic"/><feColorMatrix values="0 0 0 0 0 0 0 0 0 0 0 0 0 0 0 0 0 0 0.25 0"/><feBlend in2="shape" result="effect1_innerShadow_135_525"/></filter></defs></svg>
